public/assets/landing_page_images/features/Slider Management.svg

<?xml version="1.0" encoding="UTF-8" standalone="no"?>
<!-- Created with Inkscape (http://www.inkscape.org/) -->

<svg
   width="72"
   height="72"
   viewBox="0 0 72 72"
   version="1.1"
   id="svg1"
   xmlns="http://www.w3.org/2000/svg"
   xmlns:svg="http://www.w3.org/2000/svg">
  <defs
     id="defs1" />
  <g
     id="layer1">
    <path
       style="fill:#860626;fill-opacity:1;fill-rule:evenodd;stroke:none"
       d="m 62.593858,28.329811 c -0.07561,0 -0.189011,-0.03778 -0.264616,-0.03778 H 42.48308 c -0.113407,0 -0.189011,0.03778 -0.302418,0.03778 -0.642638,0.151137 -1.134067,0.7179 -1.134067,1.435799 v 12.242075 c 0,0.793467 0.642638,1.435799 1.436485,1.435799 h 19.846162 c 0.793847,0 1.398682,-0.642331 1.398682,-1.435799 V 29.76561 c 0,-0.717899 -0.453627,-1.284662 -1.134066,-1.435799 z m -1.7011,12.242074 H 43.919564 V 31.20141 h 16.973194 z"
       id="path1-4" />
    <path
       style="fill:#860626;fill-opacity:1;fill-rule:evenodd;stroke:none"
       d="m 29.063294,28.329811 c -0.113407,0 -0.189012,-0.03778 -0.302418,-0.03778 H 8.9147133 c -0.075604,0 -0.1890111,0.03778 -0.2646155,0.03778 -0.6804399,0.151137 -1.1340664,0.7179 -1.1340664,1.435799 v 12.242075 c 0,0.793467 0.6048354,1.435799 1.3986819,1.435799 H 28.760876 c 0.793846,0 1.436484,-0.642331 1.436484,-1.435799 V 29.76561 c 0,-0.717899 -0.491429,-1.284662 -1.134066,-1.435799 z M 27.324392,40.571885 H 10.351197 V 31.20141 h 16.973195 z"
       id="path2-3" />
    <path
       style="fill:#860626;fill-opacity:1;fill-rule:evenodd;stroke:none"
       d="m -0.006609,36.982388 c 0,-0.07557 0.0378,-0.188921 0.0756,-0.226705 l 2.1925286,-2.191482 c 0,0 0.1512088,-0.113353 0.2268133,-0.113353 0.075604,0 0.1512088,0.03778 0.189011,0.113353 0.075604,0.03778 0.1134067,0.113352 0.1134067,0.188921 0,0.07557 -0.037802,0.151136 -0.1134067,0.18892 l -1.9657151,2.040346 1.9657151,2.002562 c 0,0 0.1134067,0.113352 0.1134067,0.18892 0,0.07557 -0.037802,0.151137 -0.1134067,0.226706 -0.037802,0.03778 -0.1134066,0.07557 -0.189011,0.07557 -0.075604,0 -0.1512089,-0.03778 -0.2268133,-0.07557 L 0.068991,37.171309 c 0,0 -0.0756,-0.113352 -0.0756,-0.188921 z"
       id="path3-8" />
    <path
       style="fill:#205578;fill-opacity:1;fill-rule:evenodd;stroke:none"
       d="m 71.931005,11.553636 c 0,0.831252 -0.68044,1.549151 -1.512089,1.549151 H 1.6188859 c -0.8316487,0 -1.5120889,-0.717899 -1.5120889,-1.549151 0,-0.869036 0.6804402,-1.549152 1.5120889,-1.549152 H 70.418916 c 0.831649,0 1.512089,0.680117 1.512089,1.549152 z"
       id="path4-0" />
    <path
       style="fill:#860626;fill-opacity:1;fill-rule:evenodd;stroke:none"
       d="m 72.006609,36.566762 c 0,0.07557 -0.0378,0.151137 -0.0756,0.188921 L 69.73848,38.98495 c 0,0 -0.151209,0.07557 -0.226813,0.07557 -0.0756,0 -0.151209,-0.03778 -0.189011,-0.07557 -0.0378,-0.07557 -0.07561,-0.151137 -0.07561,-0.226705 0,-0.07557 0,-0.151137 0.07561,-0.188921 l 2.003517,-2.002562 -2.003517,-2.002561 c 0,0 -0.07561,-0.151137 -0.07561,-0.226705 0,-0.07557 0,-0.151137 0.07561,-0.188921 0.0378,-0.07557 0.113406,-0.113353 0.189011,-0.113353 0.0756,0 0.151209,0.03778 0.226813,0.113353 l 2.192529,2.191482 c 0,0 0.0756,0.151137 0.0756,0.226705 z"
       id="path5-8" />
    <path
       style="fill:#860626;fill-opacity:1;fill-rule:evenodd;stroke:none"
       d="m 71.8554,60.446363 c 0,0.869036 -0.68044,1.549153 -1.512088,1.549153 H 1.5432815 c -0.8316487,0 -1.5120885,-0.680116 -1.5120885,-1.549153 0,-0.831252 0.6804398,-1.54915 1.5120885,-1.54915 H 70.343312 c 0.831648,0 1.512088,0.717899 1.512088,1.54915 z"
       id="path6-8" />
    <path
       style="fill:#860626;fill-opacity:1;fill-rule:evenodd;stroke:none"
       d="m 71.8554,11.553636 c 0,0.831252 -0.68044,1.549151 -1.512088,1.549151 H 1.5432815 c -0.8316487,0 -1.5120885,-0.717899 -1.5120885,-1.549151 0,-0.869036 0.6804398,-1.549152 1.5120885,-1.549152 H 70.343312 c 0.831648,0 1.512088,0.680117 1.512088,1.549152 z"
       id="path7-0" />
    <path
       style="fill:#860626;fill-opacity:1;fill-rule:evenodd;stroke:none"
       d="m 71.8554,51.64265 c 0,0.869036 -0.68044,1.549151 -1.512088,1.549151 H 1.5432815 c -0.8316487,0 -1.5120885,-0.680115 -1.5120885,-1.549151 0,-0.831252 0.6804398,-1.511368 1.5120885,-1.511368 H 70.343312 c 0.831648,0 1.512088,0.680116 1.512088,1.511368 z"
       id="path8-6" />
    <path
       style="fill:#860626;fill-opacity:1;fill-rule:evenodd;stroke:none"
       d="m 71.8554,20.357349 c 0,0.831252 -0.68044,1.511369 -1.512088,1.511369 H 1.5432815 c -0.8316487,0 -1.5120885,-0.680117 -1.5120885,-1.511369 0,-0.869036 0.6804398,-1.54915 1.5120885,-1.54915 H 70.343312 c 0.831648,0 1.512088,0.680115 1.512088,1.54915 z"
       id="path9-8" />
  </g>
</svg>

<svg width="72" height="72" viewBox="0 0 72 72" fill="none" xmlns="http://www.w3.org/2000/svg">
<path fill-rule="evenodd" clip-rule="evenodd" d="M62.6022 28.3287C62.5003 28.3158 62.4112 28.303 62.3093 28.303H42.4819C42.38 28.303 42.2909 28.3158 42.189 28.3287C41.5396 28.4703 41.0557 29.0495 41.0557 29.7445V41.998C41.0557 42.796 41.6924 43.4396 42.4819 43.4396H62.3093C63.0988 43.4396 63.7355 42.796 63.7355 41.998V29.7445C63.7355 29.0495 63.2516 28.4703 62.6022 28.3287ZM60.8958 40.5564H43.8954V31.1861H60.8958V40.5564Z" fill="#215679"/>
<path fill-rule="evenodd" clip-rule="evenodd" d="M29.047 28.3287C28.9451 28.3158 28.856 28.303 28.7541 28.303H8.92674C8.82486 28.303 8.73572 28.3158 8.63385 28.3287C7.98439 28.4703 7.50049 29.0495 7.50049 29.7445V41.998C7.50049 42.796 8.13721 43.4396 8.92674 43.4396H28.7541C29.5436 43.4396 30.1804 42.796 30.1804 41.998V29.7445C30.1804 29.0495 29.6965 28.4703 29.047 28.3287ZM27.3406 40.5564H10.3402V31.1861H27.3406V40.5564Z" fill="#215679"/>
<path fill-rule="evenodd" clip-rule="evenodd" d="M0 36.9653C0 36.8881 0.0254687 36.8109 0.0891404 36.7594L2.27945 34.5455C2.27945 34.5455 2.40679 34.4554 2.4832 34.4554C2.5596 34.4554 2.63601 34.4812 2.68695 34.5455C2.73788 34.597 2.77609 34.6743 2.77609 34.7515C2.77609 34.8287 2.75062 34.9059 2.68695 34.9574L0.700389 36.9653L2.68695 38.9733C2.68695 38.9733 2.77609 39.102 2.77609 39.1792C2.77609 39.2564 2.75062 39.3337 2.68695 39.3851C2.63601 39.4366 2.5596 39.4752 2.4832 39.4752C2.40679 39.4752 2.33039 39.4495 2.27945 39.3851L0.0891404 37.1713C0.0891404 37.1713 0 37.0426 0 36.9653Z" fill="#215679"/>
<path fill-rule="evenodd" clip-rule="evenodd" d="M71.9236 11.5446C71.9236 12.3941 71.236 13.0891 70.3955 13.0891H1.63005C0.789583 13.0891 0.101929 12.3941 0.101929 11.5446C0.101929 10.695 0.789583 10 1.63005 10H70.3955C71.236 10 71.9236 10.695 71.9236 11.5446Z" fill="#215679"/>
<path fill-rule="evenodd" clip-rule="evenodd" d="M72 36.5535C72 36.6307 71.9745 36.7079 71.9108 36.7594L69.7205 38.9733C69.7205 38.9733 69.5932 39.0634 69.5168 39.0634C69.4404 39.0634 69.364 39.0376 69.313 38.9733C69.2621 38.9218 69.2239 38.8446 69.2239 38.7673C69.2239 38.6901 69.2493 38.6129 69.313 38.5614L71.2996 36.5535L69.313 34.5455C69.313 34.5455 69.2239 34.4168 69.2239 34.3396C69.2239 34.2624 69.2493 34.1851 69.313 34.1337C69.364 34.0822 69.4404 34.0436 69.5168 34.0436C69.5932 34.0436 69.6696 34.0693 69.7205 34.1337L71.9108 36.3475C71.9108 36.3475 72 36.4762 72 36.5535Z" fill="#215679"/>
<path fill-rule="evenodd" clip-rule="evenodd" d="M71.8471 60.4554C71.8471 61.3049 71.1595 62 70.319 62H1.55351C0.713045 62 0.0253906 61.3049 0.0253906 60.4554C0.0253906 59.6059 0.713045 58.9109 1.55351 58.9109H70.319C71.1595 58.9109 71.8471 59.6059 71.8471 60.4554Z" fill="#215679"/>
<path fill-rule="evenodd" clip-rule="evenodd" d="M71.8472 11.5446C71.8472 12.3941 71.1596 13.0891 70.3191 13.0891H1.55363C0.713167 13.0891 0.0255127 12.3941 0.0255127 11.5446C0.0255127 10.695 0.713167 10 1.55363 10H70.3191C71.1596 10 71.8472 10.695 71.8472 11.5446Z" fill="#215679"/>
<path fill-rule="evenodd" clip-rule="evenodd" d="M71.8471 51.6643C71.8471 52.5139 71.1595 53.2089 70.319 53.2089H1.55351C0.713045 53.2089 0.0253906 52.5139 0.0253906 51.6643C0.0253906 50.8148 0.713045 50.1198 1.55351 50.1198H70.319C71.1595 50.1198 71.8471 50.8148 71.8471 51.6643Z" fill="#215679"/>
<path fill-rule="evenodd" clip-rule="evenodd" d="M71.8471 20.3356C71.8471 21.1852 71.1595 21.8802 70.319 21.8802H1.55351C0.713045 21.8802 0.0253906 21.1852 0.0253906 20.3356C0.0253906 19.4861 0.713045 18.7911 1.55351 18.7911H70.319C71.1595 18.7911 71.8471 19.4861 71.8471 20.3356Z" fill="#215679"/>
</svg>
